X: 30045
T: Off To The Hunt
R: jig
M: 6/8
K: Edorian
|:D|EFE EFA|BdB AFE|DED FED|AFD FED|
EFE EFA|BAB dfe|BAG FGA|BGE E2:|
|:d|ede EFE|ede Eec|d2D DED|FEF DEF|
GFG AGA|BAB dfe|BAG FGA|BGE E2:|

